app/images/logo.svg

<svg width="62" height="23" viewBox="0 0 62 23" xmlns="http://www.w3.org/2000/svg">
<path d="M10.3551 10.9994C10.1451 10.9014 9.8861 10.8524 9.5781 10.8524C9.2421 10.8524 8.9341 10.9154 8.6541 11.0414C8.2621 11.2234 7.9541 11.4894 7.7301 11.8394C7.5201 12.1894 7.4151 12.5604 7.4151 12.9524C7.4151 13.5264 7.6391 14.0374 8.0871 14.4854C8.2411 14.6394 8.4651 14.7864 8.7591 14.9264C9.0531 15.0524 9.2981 15.1154 9.4941 15.1154C10.0121 15.1154 10.4951 14.9054 10.9431 14.4854C11.4051 14.0514 11.6361 13.5334 11.6361 12.9314C11.6361 12.5254 11.5241 12.1474 11.3001 11.7974C11.0761 11.4474 10.7611 11.1814 10.3551 10.9994ZM8.9271 9.2354C9.1511 9.2074 9.3331 9.1934 9.4731 9.1934C10.1171 9.1934 10.7051 9.3264 11.2371 9.5924C11.5171 9.7464 11.6711 9.8234 11.6991 9.8234C11.7271 9.8234 11.7411 9.7114 11.7411 9.4874V9.1724H13.3371V16.7114H11.7411V16.0604L11.2791 16.2914C10.7191 16.5714 10.1311 16.7114 9.5151 16.7114C8.8291 16.7114 8.2271 16.5644 7.7091 16.2704C7.1071 15.9344 6.6311 15.4724 6.2811 14.8844C5.9311 14.2824 5.7561 13.6454 5.7561 12.9734C5.7561 12.7074 5.7701 12.5114 5.7981 12.3854C5.9381 11.5734 6.2951 10.8804 6.8691 10.3064C7.4431 9.7324 8.1291 9.3754 8.9271 9.2354Z" fill="#2A364E"/>
<path d="M15.1575 16.6274V9.0884H16.8375V9.6134C16.8375 9.9634 16.8725 10.1384 16.9425 10.1384C16.9705 10.1384 17.0055 10.1104 17.0475 10.0544C17.1035 9.9704 17.3275 9.8444 17.7195 9.6764C18.1115 9.4944 18.4405 9.3684 18.7065 9.2984C18.9865 9.2284 19.3435 9.1934 19.7775 9.1934C20.2255 9.1934 20.5685 9.2284 20.8065 9.2984C21.4505 9.4524 22.0385 9.7394 22.5705 10.1594C23.1025 10.5794 23.5015 11.0624 23.7675 11.6084C24.0055 12.0844 24.1525 12.5044 24.2085 12.8684C24.2645 13.2324 24.2925 13.9044 24.2925 14.8844V16.6274H22.6965V15.1574C22.6965 14.3174 22.6685 13.7224 22.6125 13.3724C22.5705 13.0224 22.4725 12.6934 22.3185 12.3854C22.0805 11.9234 21.7165 11.5454 21.2265 11.2514C20.7365 10.9574 20.2395 10.8104 19.7355 10.8104C19.6375 10.8104 19.4905 10.8244 19.2945 10.8524C18.3005 11.0624 17.5795 11.6224 17.1315 12.5324L16.8795 13.0574C16.8795 13.4634 16.8725 14.0654 16.8585 14.8634C16.8445 15.6474 16.8375 16.2354 16.8375 16.6274H15.1575Z" fill="#2A364E"/>
<path d="M27.2726 8.3744V6.3584H28.8686V8.3744H29.9816V9.9704H28.8686V16.6274H27.2726V9.9704H26.2226V8.3744H27.2726Z" fill="#2A364E"/>
<path d="M31.8501 16.7114V6.4424H33.4461V8.2904C33.4461 9.5224 33.4601 10.1384 33.4881 10.1384C33.5161 10.1384 33.6841 10.0474 33.9921 9.8654C34.7201 9.4314 35.5041 9.2144 36.3441 9.2144C37.3381 9.2144 38.2131 9.4944 38.9691 10.0544C39.7391 10.6144 40.2851 11.3774 40.6071 12.3434C40.7051 12.6094 40.7681 13.4144 40.7961 14.7584L40.8381 16.7114H39.2421L39.2001 14.9264C39.1721 13.6944 39.1021 12.9454 38.9901 12.6794C38.7801 12.1334 38.4231 11.6924 37.9191 11.3564C37.4151 11.0064 36.8831 10.8314 36.3231 10.8314C36.2111 10.8314 36.0571 10.8454 35.8611 10.8734C34.8671 11.0694 34.1531 11.6224 33.7191 12.5324C33.6071 12.7564 33.5371 12.9804 33.5091 13.2044C33.4951 13.4144 33.4811 13.9604 33.4671 14.8424L33.4461 16.7114H31.8501Z" fill="#2A364E"/>
<path d="M42.7086 16.6274V9.0044H44.3046V10.0544L44.5356 9.9074C45.1936 9.4454 45.9566 9.1584 46.8246 9.0464L47.2866 9.0044V9.8024C47.2866 10.1804 47.2726 10.4114 47.2446 10.4954C47.2306 10.5654 47.1816 10.6144 47.0976 10.6424C46.4676 10.7824 45.9916 10.9574 45.6696 11.1674C45.3476 11.4054 45.1026 11.6364 44.9346 11.8604C44.6686 12.2104 44.5076 12.5324 44.4516 12.8264C44.3956 13.1204 44.3536 13.7784 44.3256 14.8004L44.3046 16.6274H42.7086Z" fill="#2A364E"/>
<path d="M53.7989 10.9784C53.5049 10.8524 53.2179 10.7894 52.9379 10.7894C52.3779 10.7894 51.8879 10.9994 51.4679 11.4194C51.0479 11.8254 50.8379 12.3084 50.8379 12.8684C50.8379 13.0924 50.8799 13.3304 50.9639 13.5824C51.3279 14.5204 51.9789 14.9894 52.9169 14.9894C53.4909 14.9894 53.9739 14.8144 54.3659 14.4644C54.7579 14.1004 54.9819 13.6314 55.0379 13.0574V12.8894C55.0379 11.9934 54.6249 11.3564 53.7989 10.9784ZM52.1189 9.2144C52.4689 9.1444 52.7629 9.1094 53.0009 9.1094C53.5189 9.1094 54.0579 9.2494 54.6179 9.5294C55.2759 9.8374 55.7869 10.2994 56.1509 10.9154C56.5289 11.5174 56.7179 12.1684 56.7179 12.8684C56.7179 13.8904 56.3679 14.7584 55.6679 15.4724C54.9399 16.2564 54.0369 16.6484 52.9589 16.6484C51.9229 16.6484 51.0339 16.2774 50.2919 15.5354C49.5639 14.8074 49.1999 13.9114 49.1999 12.8474C49.1999 11.9654 49.4729 11.1884 50.0189 10.5164C50.5649 9.8304 51.2649 9.3964 52.1189 9.2144Z" fill="#2A364E"/>
</svg>

<svg width="62" height="23" xmlns="http://www.w3.org/2000/svg"><path d="M10.36 11a2.23 2.23 0 0 0-1.7.04c-.4.18-.7.45-.93.8a2.11 2.11 0 0 0 .36 2.65 2.42 2.42 0 0 0 1.4.63c.52 0 1-.21 1.45-.63.47-.44.7-.96.7-1.56A2.12 2.12 0 0 0 10.36 11ZM8.93 9.24a3.89 3.89 0 0 1 2.31.36c.28.15.43.22.46.22.03 0 .04-.1.04-.33v-.32h1.6v7.54h-1.6v-.65l-.46.23a3.9 3.9 0 0 1-3.57-.02 3.77 3.77 0 0 1 1.22-7.03ZM15.16 16.63V9.09h1.68v.52c0 .35.03.53.1.53.03 0 .07-.03.1-.09.06-.08.29-.2.68-.37.4-.19.72-.31.99-.38.28-.07.63-.1 1.07-.1.45 0 .79.03 1.03.1a4.51 4.51 0 0 1 3.4 3.57c.05.36.08 1.03.08 2.01v1.75h-1.6v-1.47c0-.84-.02-1.44-.08-1.79a2.83 2.83 0 0 0-1.39-2.12 2.87 2.87 0 0 0-1.93-.4c-.99.21-1.71.77-2.16 1.68l-.25.53c0 .4 0 1-.02 1.8-.02.79-.02 1.38-.02 1.77h-1.68ZM27.27 8.37V6.36h1.6v2.01h1.11v1.6h-1.11v6.66h-1.6V9.97h-1.05v-1.6h1.05ZM31.85 16.71V6.44h1.6V8.3c0 1.23.01 1.85.04 1.85s.2-.1.5-.27a4.51 4.51 0 0 1 6.62 2.47c.1.27.16 1.07.19 2.42l.04 1.95h-1.6l-.04-1.78a8.84 8.84 0 0 0-.21-2.25 2.75 2.75 0 0 0-1.07-1.32 2.75 2.75 0 0 0-2.06-.49 2.87 2.87 0 0 0-2.35 2.33c-.01.21-.03.76-.04 1.64l-.02 1.87h-1.6ZM42.7 16.63V9h1.6v1.05l.24-.14a5.04 5.04 0 0 1 2.28-.86L47.3 9v.8c0 .38-.02.61-.05.7 0 .07-.06.11-.14.14-.63.14-1.1.32-1.43.53-.32.24-.57.47-.74.69a2.4 2.4 0 0 0-.48.97c-.05.29-.1.95-.12 1.97l-.03 1.83h-1.6ZM53.8 10.98a2.01 2.01 0 0 0-2.33.44c-.42.4-.63.89-.63 1.45 0 .22.04.46.12.71.37.94 1.02 1.4 1.96 1.4a2.1 2.1 0 0 0 1.45-.52c.39-.36.61-.83.67-1.4v-.17c0-.9-.42-1.53-1.24-1.91ZM52.12 9.2a3.61 3.61 0 0 1 2.5.32c.66.3 1.17.77 1.53 1.39.38.6.57 1.25.57 1.95 0 1.02-.35 1.89-1.05 2.6a3.55 3.55 0 0 1-2.71 1.18 3.64 3.64 0 0 1-2.67-1.11 3.65 3.65 0 0 1-1.09-2.7c0-.87.27-1.65.82-2.32a3.56 3.56 0 0 1 2.1-1.3Z" fill="#2A364E"/></svg>
